X:1
P: Down the Broom [2X]
C: trad., Arr. T. Traub 7-10-03
R: reel
M: 4/4
K: G
L: 1/8
BA|"Em"GBEB GBEB|"Em"GBEB "Am"c2 BA|"Em"GBEB GBEB|"D"FDFG A2 BA|"Em"GBEB GBEB|"Em"GBEB "C"c2 BA|"G"GABc dedB|"D"AFDF A2 ||
GF| "G"G2 BG cGBG|"G"G2 Bd "C"egdB|"G"G2 BG cGBG|"D"AFDF AcBA|"G"G2 BG cGBG|"G"G2 Bd "C"e3 f|"G"gagf edBd|"C"egdB "D"A2 |]
